korla/status/symbolic/network-error-symbolic.svg

<svg style="clip-rule:evenodd;fill-rule:evenodd;stroke-linejoin:round;stroke-miterlimit:2" version="1.1" viewBox="0 0 16 16" xmlns="http://www.w3.org/2000/svg">
 <g transform="matrix(1.09632 0 0 .830325 -.992944 2.67483)">
  <path d="m10 9 5.5-4.5-5.5-4.5v2.97h-3v3.06h3v2.97z" style="fill-opacity:.5;fill-rule:nonzero;fill:rgb(223,223,223)"/>
 </g>
 <g transform="matrix(-1.09632 0 0 .830325 16.9929 5.85225)">
  <path d="m10 9 5.5-4.5-5.5-4.5v2.97h-3v3.06h3v2.97z" style="fill-opacity:.5;fill-rule:nonzero;fill:rgb(223,223,223)"/>
 </g>
 <path d="m12 6v4l0.25 2h1.5l0.25-2v-4h-2zm0 7v2h2v-2h-2z" style="fill-rule:nonzero;fill:rgb(66,133,244)"/>
</svg>

<svg xmlns="http://www.w3.org/2000/svg" width="16" height="16" version="1.1">
 <path style="fill:#dfdfdf;opacity:0.3" d="M 10 0 L 10 2 L 7 2 L 7 7 L 10 7 L 10 9 L 11 8.1816 L 11 5 L 14.889 5 L 15.5 4.5 L 10 0 z"/>
 <path style="fill:#dfdfdf;opacity:0.3" d="M 6,6 0.5,10.5 6,15 V 13 H 9 V 8 H 6 Z"/>
 <path style="fill:#4285f4" class="warning" d="M 12,6 V 10 L 12.25,12 H 13.75 L 14,10 V 6 Z M 12,13 V 15 H 14 V 13 Z"/>
</svg>
